X: 412
T: Bir Seni Bir Gülü...
C: Selahattin İçli
O: Turkey
F: http://compmusic.upf.edu/node/140
N: hicaz--sarki--evfer--bir_seni--selahattin_icli
N: makam= hicaz
N: form= sarki
N: usul= evfer = 9/8
M: 9/8
L: 1/16
K: C _7/8B ^f ^c 
Q: 1/4=144
%%MIDI tuningsystem comma53
d4 c4 B4 A2A4 | =f4e4d4c2 c4  | g4 e4 c4 e2e4 | \
w:  SAZ  |   |   | 
c4A4B2 c2A2 A4  | 
w:   | 
B8 G4 A2A4 | B8G4A2 A4  | d4 c2c2 B4 A2A4 | \
w:   |   |  Bir  se ni  bir  gü lü   | 
=f4e4d4c2 c4  | g4 =f2e2 e4 d2e4 | 
w:  öp tüm  giz li ce    |  Gül  be ni  kok la dı   | 
d4=B4d4d2 d4  | a4 a2gf f4 d2d4 | A4B2 d2c4B2 A4  | \
w:  sol du  in le di    |  Aş kı  *  *  an la dı    |  SAZ  | 
d4 c2c2 B4 A2A4 | 
w:  Bir  se ni  bir  gü lü   | 
=f4e4d4c2 c4  | g4 =f2e2 e4 d2e4 | d4=B4d4d2 d4  | \
w:  öp tüm  giz li ce    |  Gül  be ni  kok la dı   |  sol du  in le di    | 
a4 a2gf f4 d2d4 | 
w:  Aş kı  *  *  an la dı    | 
f4g2 e2d4d2 d4  | g4 =f2e2 d4 a2a4 | \
w:  SAZ  |  Bir  sa na  bir  gö le   | 
=b2 g2=f2 e2d2 d2e2 f4  | e4 d2c2 B2A2 e2e4 | 
w:  ak *  tım  *  *  de li ce    |  Göl  su ya  has *  re ti   | 
d4c4B4A2 A4  | B4 B4 G4 A2A4 | f4g2 e2d4d2 d4  | \
w:  ben den  din le di    |  Aş kı  an la dı    |  SAZ  | 
g4 =f2e2 d4 a2a4 | 
w:  Bir  sa na  bir  gö le   | 
=b2 g2=f2 e2d2 d2e2 f4  | e4 d2c2 B2A2 e2e4 | \
w:  ak *  tım  *  *  de li ce    |  Göl  su ya  has *  re ti   | 
d4c4B4A2 A4  | B4 B4 G4 A2A4 | 
w:  ben den  din le di    |  Aş kı  an la dı    | 
b4a4=f4^g2 a4  | a4 a2a4a2 a2=b4 | a4^g6 =f2=g2 a4  | \
w:  SAZ  |  Der di mi  de ni ze   |  aç tım_ o  ge ce    | 
^g2=f4e2 e2d2 f2f4 | 
w:  De rin de  bir  *  ka ya   | 
e4c4e4e2 e4  | f4 f2^ed f4 f2f4 | z2 a4 ^g2f4g2 a4  | \
w:  yan dı  tit re di    |  Aş kı  *  *  an la dı    |  SAZ  | 
a4 a2a4a2 a2=b4 | 
w:  Der di mi  de ni ze   | 
a4^g6 =f2=g2 a4  | ^g2=f4e2 e2d2 f2f4 | \
w:  aç tım_ o  ge ce    |  De rin de  bir  *  ka ya   | 
e4c4e4e2 e4  | a4 a2gf f4 d2d4 | 
w:  yan dı  tit re di    |  Aş kı  *  *  an la dı    | 
f4g2 e2d4d2 d4  | g4 =f2e2 d4 a2a4 | \
w:  SAZ  |  Taş la ra  ruh  ve ren   | 
=b2 g2=f2 e2d4e2 f4  | e4 d2c2 B2A2 e2e4 | 
w:  sır *  ra  *  er me din    |  Öm rü mü  mah ve den  der  | 
d4c4B4A2 A4  | B4 B4 G4 A2A4 | f4g2 e2d4d2 d4  | \
w:  di  bil me din    |  Aş ka  er me din    |  SAZ  | 
g4 =f2e2 d4 a2a4 | 
w:  Taş la ra  ruh  ve ren   | 
=b2 g2=f2 e2d4e2 f4  | e4 d2c2 B2A2 e2e4 | \
w:  sır *  ra  *  er me din    |  Öm rü mü  mah ve den  der  | 
d4c4B4A2 A4  | B4 B4 G4 A2A4 | 
w:  di  bil me din    |  Aş ka  er me din    | 
B4B4G4A2 A4  | |


